_site/images/features/icons/cloud-database.svg

<svg height="34" viewBox="0 0 34 34" width="34" xmlns="http://www.w3.org/2000/svg"><path d="m33.2272727 20.8636364c0-1.707062-1.3838471-3.0909091-3.0909091-3.0909091h-9.2727272c-1.707062 0-3.0909091 1.3838471-3.0909091 3.0909091h-4.6363637v-4.6363637h3.6009091c2.7739693.0046228 5.1419503-2.0030595 5.5911389-4.7404225.4491886-2.73736314-1.1529841-5.39652926-3.7829571-6.27866838-1.4498917-3.02344713-4.6842339-4.76678444-8.0068851-4.31577769-3.32265131.45100675-5.97525837 2.99342094-6.56675122 6.29395951-2.16187051.71055319-3.48847851 2.88505416-3.13119557 5.13247906.35728293 2.247425 2.29282687 3.9033275 4.5684683 3.90843h4.63636359v12.3636364c0 .853531.6919236 1.5454545 1.5454546 1.5454545h6.1818182c0 1.707062 1.3838471 3.0909091 3.0909091 3.0909091h9.2727272c1.707062 0 3.0909091-1.3838471 3.0909091-3.0909091v-3.0909091c-.0056524-.5442664-.1549269-1.0773895-.4327272-1.5454545.2778003-.468065.4270748-1.0011881.4327272-1.5454545zm-27.81818179-7.7272728c-.85353098 0-1.54545455-.6919235-1.54545455-1.5454545s.69192357-1.5454546 1.54545455-1.5454546 1.54545454-.69192352 1.54545454-1.5454545c-.02576198-2.27833787 1.60776115-4.2377194 3.85355835-4.62227372 2.2457972-.38455431 4.4381637.91970913 5.1718962 3.07681917.1846838.53511424.6471528.92643422 1.2054545 1.02 1.2552226.20777989 2.1652301 1.3090208 2.1327273 2.58090905 0 1.4253968-1.1555123 2.5809091-2.5809091 2.5809091zm12.36363639 13.9090909h-4.6363637v-3.090909h4.6363637c.0056524.5442664.1549269 1.0773895.4327272 1.5454545-.2778003.468065-.4270748 1.0011881-.4327272 1.5454545zm3.0909091 3.0909091v-3.0909091h9.2727272v3.0909091zm0-6.1818181v-3.0909091h9.2727272v3.0909091z" fill="#0b7a76"/></svg>

<?xml version="1.0" encoding="UTF-8"?>
<svg width="34px" height="34px" viewBox="0 0 34 34" version="1.1" xmlns="http://www.w3.org/2000/svg" xmlns:xlink="http://www.w3.org/1999/xlink">
    <!-- Generator: Sketch 52.6 (67491) - http://www.bohemiancoding.com/sketch -->
    <title>cloud-database-tree</title>
    <desc>Created with Sketch.</desc>
    <g id="Landing-page" stroke="none" stroke-width="1" fill="none" fill-rule="evenodd">
        <g id="1.3--Features" transform="translate(-574.000000, -4518.000000)" fill="#0B7A76" fill-rule="nonzero">
            <g id="Group-11" transform="translate(174.000000, 4518.000000)">
                <g id="cloud-database-tree" transform="translate(400.000000, 0.000000)">
                    <path d="M33.2272727,20.8636364 C33.2272727,19.1565744 31.8434256,17.7727273 30.1363636,17.7727273 L20.8636364,17.7727273 C19.1565744,17.7727273 17.7727273,19.1565744 17.7727273,20.8636364 L13.1363636,20.8636364 L13.1363636,16.2272727 L16.7372727,16.2272727 C19.511242,16.2318955 21.879223,14.2242132 22.3284116,11.4868502 C22.7776002,8.74948706 21.1754275,6.09032094 18.5454545,5.20818182 C17.0955628,2.18473469 13.8612206,0.44139738 10.5385694,0.892404128 C7.21591809,1.34341088 4.56331103,3.88582507 3.97181818,7.18636364 C1.80994767,7.89691683 0.483339668,10.0714178 0.840622606,12.3188427 C1.19790554,14.5662677 3.13344948,16.2221702 5.40909091,16.2272727 L10.0454545,16.2272727 L10.0454545,28.5909091 C10.0454545,29.4444401 10.7373781,30.1363636 11.5909091,30.1363636 L17.7727273,30.1363636 C17.7727273,31.8434256 19.1565744,33.2272727 20.8636364,33.2272727 L30.1363636,33.2272727 C31.8434256,33.2272727 33.2272727,31.8434256 33.2272727,30.1363636 L33.2272727,27.0454545 C33.2216203,26.5011881 33.0723458,25.968065 32.7945455,25.5 C33.0723458,25.031935 33.2216203,24.4988119 33.2272727,23.9545455 L33.2272727,20.8636364 Z M5.40909091,13.1363636 C4.55555993,13.1363636 3.86363636,12.4444401 3.86363636,11.5909091 C3.86363636,10.7373781 4.55555993,10.0454545 5.40909091,10.0454545 C6.26262189,10.0454545 6.95454545,9.35353098 6.95454545,8.5 C6.92878347,6.22166213 8.5623066,4.2622806 10.8081038,3.87772628 C13.053901,3.49317197 15.2462675,4.79743541 15.98,6.95454545 C16.1646838,7.48965969 16.6271528,7.88097967 17.1854545,7.97454545 C18.4406771,8.18232534 19.3506846,9.28356625 19.3181818,10.5554545 C19.3181818,11.9808513 18.1626695,13.1363636 16.7372727,13.1363636 L5.40909091,13.1363636 Z M17.7727273,27.0454545 L13.1363636,27.0454545 L13.1363636,23.9545455 L17.7727273,23.9545455 C17.7783797,24.4988119 17.9276542,25.031935 18.2054545,25.5 C17.9276542,25.968065 17.7783797,26.5011881 17.7727273,27.0454545 Z M20.8636364,30.1363636 L20.8636364,27.0454545 L30.1363636,27.0454545 L30.1363636,30.1363636 L20.8636364,30.1363636 Z M20.8636364,23.9545455 L20.8636364,20.8636364 L30.1363636,20.8636364 L30.1363636,23.9545455 L20.8636364,23.9545455 Z" id="Shape"></path>
                </g>
            </g>
        </g>
    </g>
</svg>
